X: 1
T: Maria's Prayer
R: barndance
M: 4/4
L: 1/8
K: Amin
EAAB cBA^G|^G2 ^GA E4|EAAB cBcd|B4 B2 cd|
e2 ef e2 ec|d2 dc B2 E2|EAAB cBA^G|A4 A4||
cd|e2 ef e2 ec|d2 dc B2 E2|e2 ef a2 a^g|e4 e2 cd|
e2 ec d2 dB|c2 dc B2 E2|EAAB cBA^G|A4 A4||
cd/c/ Bc/B/ AB/A/ ^GE|cd/c/ Bc/d/ e2 e2|
cd/c/ Bc/B/ AB/A/ ^GE|EAAB cBA^G|A4 A4||
ef/e/ de/d/ cd/c/ BE|ef/e/ aa/^g/ e2 ec/d/|
ef/e/ de/d/ cd/c/ BE|EAAB cBA^G|A4 A4||

